assets/icons/image/_.svg

<?xml version="1.0" encoding="UTF-8" standalone="no"?>
<svg viewBox="0 0 24 24" height="24" id="svg7384" version="1.1" width="24" sodipodi:docname="image.svg" inkscape:version="1.1 (ce6663b3b7, 2021-05-25)"
   xmlns:inkscape="http://www.inkscape.org/namespaces/inkscape"
   xmlns:sodipodi="http://sodipodi.sourceforge.net/DTD/sodipodi-0.dtd"
   xmlns="http://www.w3.org/2000/svg"
   xmlns:svg="http://www.w3.org/2000/svg"
   xmlns:rdf="http://www.w3.org/1999/02/22-rdf-syntax-ns#"
   xmlns:cc="http://creativecommons.org/ns#"
   xmlns:dc="http://purl.org/dc/elements/1.1/">
   <sodipodi:namedview id="namedview23" pagecolor="#ffffff" bordercolor="#666666" borderopacity="1.0" inkscape:pageshadow="2" inkscape:pageopacity="0.0" inkscape:pagecheckerboard="0" showgrid="true" inkscape:zoom="19.79899" inkscape:cx="21.238457" inkscape:cy="10.581348" inkscape:window-width="1920" inkscape:window-height="1016" inkscape:window-x="0" inkscape:window-y="27" inkscape:window-maximized="1" inkscape:current-layer="svg7384">
      <inkscape:grid type="xygrid" id="grid24" />
      <inkscape:grid type="xygrid" id="grid841" dotted="true" spacingx="0.5" spacingy="0.5" empspacing="10" />
   </sodipodi:namedview>
   <metadata id="metadata20854">
      <rdf:RDF>
         <cc:Work rdf:about="">
            <dc:format>image/svg+xml</dc:format>
            <dc:type rdf:resource="http://purl.org/dc/dcmitype/StillImage" />
         </cc:Work>
      </rdf:RDF>
   </metadata>
   <defs id="defs7386">
      <linearGradient id="linearGradient5606" inkscape:swatch="solid">
         <stop id="stop5608" offset="0" style="stop-color:#000000;stop-opacity:1;" />
      </linearGradient>
      <linearGradient id="linearGradient4526" inkscape:swatch="solid">
         <stop id="stop4528" offset="0" style="stop-color:#ffffff;stop-opacity:1;" />
      </linearGradient>
      <linearGradient id="linearGradient3600-4" inkscape:swatch="gradient">
         <stop id="stop3602-7" offset="0" style="stop-color:#f4f4f4;stop-opacity:1" />
         <stop id="stop3604-6" offset="1" style="stop-color:#dbdbdb;stop-opacity:1" />
      </linearGradient>
   </defs>
   <g id="layer9" label="status" style="display:inline;stroke-width:0.809017;fill:#808080;fill-opacity:1" transform="matrix(1.2360674,0,0,1.2360674,-681.5449,257.97741)" />
   <g id="layer2" style="display:inline;stroke-width:0.809017;fill:#808080;fill-opacity:1" transform="matrix(1.2360674,0,0,1.2360674,-383.65241,-195.65932)" />
   <g id="g1812" style="display:inline;stroke-width:0.809017;fill:#808080;fill-opacity:1" transform="matrix(1.2360674,0,0,1.2360674,-383.65241,-195.65932)" />
   <g id="g6217" style="display:inline;stroke-width:0.809017;fill:#808080;fill-opacity:1" transform="matrix(1.2360674,0,0,1.2360674,-383.65241,-195.65932)" />
   <g id="layer3" style="display:inline;stroke-width:0.809017;fill:#808080;fill-opacity:1" transform="matrix(1.2360674,0,0,1.2360674,-383.65241,-195.65932)" />
   <g id="g1833" style="display:inline;stroke-width:0.809017;fill:#808080;fill-opacity:1" transform="matrix(1.2360674,0,0,1.2360674,-383.65241,-195.65932)" />
   <g id="layer1" style="display:inline;stroke-width:0.809017;fill:#808080;fill-opacity:1" transform="matrix(1.2360674,0,0,1.2360674,-383.65241,-195.65932)" />
   <path style="color:#000000;fill:#808080;-inkscape-stroke:none;fill-opacity:1" d="m 6,3 c -1.0416656,0 -1.9983046,0.1146077 -2.7578125,0.5703125 -0.7595079,0.4557048 -1.2421875,1.3046886 -1.2421875,2.4296875 v 12 c 0,1.124999 0.4826796,1.973983 1.2421875,2.429687 0.7595079,0.455705 1.7161469,0.570313 2.7578125,0.570313 h 12 c 1.041666,0 1.998305,-0.114608 2.757812,-0.570313 0.759508,-0.455704 1.242188,-1.304688 1.242188,-2.429687 v -12 c 0,-1.1249989 -0.48268,-1.9739827 -1.242188,-2.4296875 -0.759507,-0.4557048 -1.716146,-0.5703125 -2.757812,-0.5703125 z m 0,1 h 12 c 0.958332,0 1.751697,0.135393 2.242187,0.4296875 0.490491,0.2942945 0.757813,0.6953134 0.757813,1.5703125 v 11 h -18 v -11 c 0,-0.8749991 0.2673217,-1.276018 0.7578125,-1.5703125 0.4904908,-0.2942945 1.2838551,-0.4296875 2.2421875,-0.4296875 z" sodipodi:nodetypes="sssssssssssssssssccsss" id="path3446" />
   <path id="path2847" style="fill:#808080;stroke:none;stroke-width:1px;stroke-linecap:butt;stroke-linejoin:miter;fill-opacity:1" d="M 9.5 8 L 5.5625 15 L 15.386719 15 L 12.5 10 L 11.5 11.464844 L 9.5 8 z " />
   <circle style="fill:#808080;fill-rule:evenodd;stroke:none;stroke-width:2;stroke-linecap:square;stroke-linejoin:round;fill-opacity:1" id="path2937" cx="17.5" cy="7.5" r="1.5" />
</svg>

<svg height="24" width="24" xmlns="http://www.w3.org/2000/svg"><path style="color:#000;fill:gray;-inkscape-stroke:none;fill-opacity:1" d="M6 3c-1.042 0-1.998.115-2.758.57C2.482 4.026 2 4.875 2 6v12c0 1.125.483 1.974 1.242 2.43.76.455 1.716.57 2.758.57h12c1.042 0 1.998-.115 2.758-.57C21.518 19.974 22 19.125 22 18V6c0-1.125-.483-1.974-1.242-2.43C19.998 3.115 19.042 3 18 3zm0 1h12c.958 0 1.752.135 2.242.43.49.294.758.695.758 1.57v11H3V6c0-.875.267-1.276.758-1.57C4.248 4.135 5.042 4 6 4z"/><path style="fill:gray;stroke:none;stroke-width:1px;stroke-linecap:butt;stroke-linejoin:miter;fill-opacity:1" d="m9.5 8-3.938 7h9.825L12.5 10l-1 1.465L9.5 8z"/><circle style="fill:gray;stroke:none;stroke-width:2;stroke-linecap:square;stroke-linejoin:round;fill-opacity:1" cx="17.5" cy="7.5" r="1.5"/></svg>
